build/images/clock-p.svg

<?xml version="1.0" encoding="UTF-8"?>
<svg width="24px" height="24px" viewBox="0 0 24 24" version="1.1" xmlns="http://www.w3.org/2000/svg" xmlns:xlink="http://www.w3.org/1999/xlink">
    <!-- Generator: sketchtool 63.1 (101010) - https://sketch.com -->
    <title>D2E0F0F7-ADF6-4C5F-BBBF-A434180CDA7A</title>
    <desc>Created with sketchtool.</desc>
    <g id="Page-1" stroke="none" stroke-width="1" fill="none" fill-rule="evenodd">
        <g id="Kupa-shop---design" transform="translate(-478.000000, -1410.000000)" fill="#333333" fill-rule="nonzero">
            <g id="projects" transform="translate(359.000000, 895.000000)">
                <g id="clock" transform="translate(119.000000, 515.000000)">
                    <path d="M21.4746094,6.31494138 C20.9775391,6.55541994 20.7695312,7.15356444 21.0100098,7.65039062 C21.6669922,9.00756837 22,10.470459 22,12 C22,17.513916 17.513916,22 12,22 C6.486084,22 2,17.513916 2,12 C2,6.486084 6.486084,2 12,2 C14.2849121,2 16.4313965,2.74609375 18.2080078,4.15747069 C18.638916,4.50146487 19.269043,4.42944337 19.6130371,3.99707031 C19.9570312,3.56494138 19.8850098,2.93554688 19.4523926,2.592041 C17.3491211,0.920410125 14.7023926,0 12,0 C5.38354494,0 -1.77635684e-15,5.38354494 -1.77635684e-15,12 C-1.77635684e-15,18.6164551 5.38354494,24 12,24 C18.6164551,24 24,18.6164551 24,12 C24,10.1665039 23.5996094,8.40942381 22.8100586,6.779541 C22.5700684,6.28149413 21.9699707,6.07397462 21.4746094,6.31494138 Z" id="Path"></path>
                    <path d="M12,4 C11.4479981,4 11,4.44799806 11,5 L11,12 C11,12.5520019 11.4479981,13 12,13 L17,13 C17.5520019,13 18,12.5520019 18,12 C18,11.4479981 17.5520019,11 17,11 L13,11 L13,5 C13,4.44799806 12.5520019,4 12,4 Z" id="Path"></path>
                </g>
            </g>
        </g>
    </g>
</svg>

<svg width="24" height="24" xmlns="http://www.w3.org/2000/svg"><g id="Page-1" stroke="none" stroke-width="1" fill="none" fill-rule="evenodd"><g id="Kupa-shop---design" transform="translate(-478 -1410)" fill="#333" fill-rule="nonzero"><g id="projects" transform="translate(359 895)"><g id="clock" transform="translate(119 515)"><path d="M21.475 6.315a1 1 0 00-.465 1.335A9.9 9.9 0 0122 12c0 5.514-4.486 10-10 10S2 17.514 2 12 6.486 2 12 2a9.88 9.88 0 016.208 2.157 1 1 0 101.244-1.565A12.02 12.02 0 0012 0C5.384 0 0 5.384 0 12s5.384 12 12 12 12-5.384 12-12c0-1.833-.4-3.59-1.19-5.22a.999.999 0 00-1.335-.465z" id="Path"/><path d="M12 4a1 1 0 00-1 1v7a1 1 0 001 1h5a1 1 0 000-2h-4V5a1 1 0 00-1-1z" id="Path"/></g></g></g></g></svg>
